austria/municipalities/20618.svg

<?xml version="1.0" encoding="UTF-8" standalone="no"?>
<!-- Created with Inkscape (http://www.inkscape.org/) -->
<svg
   xmlns:dc="http://purl.org/dc/elements/1.1/"
   xmlns:cc="http://web.resource.org/cc/"
   xmlns:rdf="http://www.w3.org/1999/02/22-rdf-syntax-ns#"
   xmlns:svg="http://www.w3.org/2000/svg"
   xmlns="http://www.w3.org/2000/svg"
   xmlns:sodipodi="http://inkscape.sourceforge.net/DTD/sodipodi-0.dtd"
   xmlns:inkscape="http://www.inkscape.org/namespaces/inkscape"
   width="690.09003"
   height="780.35999"
   id="svg1332"
   sodipodi:version="0.32"
   inkscape:version="0.43"
   sodipodi:docname="wappen_mallnitz.svg"
   version="1.0"
   sodipodi:docbase="M:\wappen">
  <defs
     id="defs3" />
  <sodipodi:namedview
     inkscape:document-units="mm"
     id="base"
     pagecolor="#ffffff"
     bordercolor="#666666"
     borderopacity="1.0"
     inkscape:pageopacity="0.0"
     inkscape:pageshadow="2"
     inkscape:zoom="0.70710678"
     inkscape:cx="217.24111"
     inkscape:cy="380.85446"
     inkscape:current-layer="layer1"
     inkscape:window-width="1280"
     inkscape:window-height="977"
     inkscape:window-x="-4"
     inkscape:window-y="-4"
     showgrid="false"
     showguides="true"
     inkscape:guide-bbox="true" />
  <metadata
     id="metadata4">
    <rdf:RDF>
      <cc:Work
         rdf:about="">
        <dc:format>image/svg+xml</dc:format>
        <dc:type
           rdf:resource="http://purl.org/dc/dcmitype/StillImage" />
        <dc:title>Wappen Gemeinde Mallnitz</dc:title>
        <dc:date>31. Jan 2006</dc:date>
        <dc:creator>
          <cc:Agent>
            <dc:title>Michael Glanznig</dc:title>
          </cc:Agent>
        </dc:creator>
        <dc:rights>
          <cc:Agent>
            <dc:title />
          </cc:Agent>
        </dc:rights>
        <dc:description>Mallnitz, coat of arms</dc:description>
        <cc:license
           rdf:resource="http://creativecommons.org/licenses/by-sa/2.0/" />
      </cc:Work>
      <cc:License
         rdf:about="http://creativecommons.org/licenses/by-sa/2.0/at/">
        <cc:permits
           rdf:resource="http://web.resource.org/cc/Reproduction" />
        <cc:permits
           rdf:resource="http://web.resource.org/cc/Distribution" />
        <cc:requires
           rdf:resource="http://web.resource.org/cc/Notice" />
        <cc:requires
           rdf:resource="http://web.resource.org/cc/Attribution" />
        <cc:permits
           rdf:resource="http://web.resource.org/cc/DerivativeWorks" />
        <cc:requires
           rdf:resource="http://web.resource.org/cc/ShareAlike" />
      </cc:License>
    </rdf:RDF>
  </metadata>
  <g
     inkscape:label="Layer 1"
     inkscape:groupmode="layer"
     id="layer1">
    <a
       id="a3977" />
    <g
       id="g1418">
      <path
         sodipodi:nodetypes="ccccc"
         id="path1350"
         d="M 17.225331,22.785356 L 670.08245,23.995256 L 619.55665,562.81299 C 582.77565,831.849 92.179889,834.9833 65.218861,562.86804 L 17.225331,22.785356 z "
         style="fill:#0180bf;fill-opacity:1;fill-rule:evenodd;stroke:#000000;stroke-width:12.81259823;stroke-linecap:butt;stroke-linejoin:miter;stroke-miterlimit:4;stroke-dasharray:none;stroke-opacity:1" />
      <path
         sodipodi:nodetypes="ccccccccccc"
         id="path3970"
         d="M 553.92853,134.027 L 394.77918,301.37062 L 362.7777,267.73509 L 217.92789,419.93882 L 186.06959,387.25568 L 66.404576,512.27079 L 69.699711,560.32504 C 96.268759,830.28723 579.73777,827.20133 615.98394,560.29404 L 634.61532,360.17136 C 634.16524,359.1523 642.11514,271.67213 642.11514,271.67213 L 553.92853,134.027 z "
         style="fill:#fdcd09;fill-opacity:1;fill-rule:evenodd;stroke:#000000;stroke-width:6.17980528;stroke-linecap:butt;stroke-linejoin:miter;stroke-miterlimit:4;stroke-dasharray:none;stroke-opacity:1" />
      <g
         id="g1700">
        <g
           style="fill:#ffffff;fill-opacity:1"
           id="g7609"
           transform="matrix(0.780116,0,0,0.907812,68.77589,9.71632)">
          <path
             id="path6734"
             d="M 170.07874,64.611954 L 109.84252,100.04502 L 111.72287,255.95054 L 141.73228,284.29699 L 194.88189,284.29699 L 223.22835,255.95054 L 224.85996,103.58833 L 170.07874,64.611954 z "
             style="fill:#ffffff;fill-opacity:1;fill-rule:evenodd;stroke:none;stroke-width:1px;stroke-linecap:butt;stroke-linejoin:miter;stroke-opacity:1" />
          <path
             sodipodi:nodetypes="ccccccccccccc"
             d="M 195.51139,133.03638 L 195.51139,284.69147 M 142.36179,133.26042 L 142.36179,284.91552 M 111.04227,257.03658 L 141.84899,285.04503 L 195.58911,285.04503 L 225.22675,256.89867 L 224.81234,105.73504 L 195.3338,132.95658 L 142.30079,132.95658 L 111.04227,104.67438 L 111.04227,257.03658 z "
             style="fill:#ffffff;fill-opacity:1;fill-rule:evenodd;stroke:#000000;stroke-width:6.25;stroke-linecap:butt;stroke-linejoin:miter;stroke-miterlimit:4;stroke-opacity:1"
             id="path2246" />
          <path
             sodipodi:nodetypes="cccccc"
             d="M 143.4453,129.98797 L 171.78194,64.203556 L 226.14484,100.76554 M 194.29297,129.88363 L 168.46927,64.193647 L 109.67298,99.908038"
             style="fill:#ffffff;fill-opacity:1;fill-rule:evenodd;stroke:#000000;stroke-width:6.25;stroke-linecap:butt;stroke-linejoin:miter;stroke-miterlimit:4;stroke-dasharray:none;stroke-opacity:1"
             id="path4040" />
        </g>
        <g
           style="fill:#ffffff;fill-opacity:1"
           id="g7622"
           transform="matrix(0.430362,0.239045,-0.239045,0.430362,228.9078,112.2935)">
          <path
             id="path7624"
             d="M 170.07874,64.611954 L 109.84252,100.04502 L 111.72287,255.95054 L 133.22227,282.65706 L 194.88189,284.29699 L 223.22835,255.95054 L 224.85996,103.58833 L 170.07874,64.611954 z "
             style="fill:#ffffff;fill-opacity:1;fill-rule:evenodd;stroke:none;stroke-width:1px;stroke-linecap:butt;stroke-linejoin:miter;stroke-opacity:1"
             sodipodi:nodetypes="cccccccc" />
          <path
             sodipodi:nodetypes="cccccccccccc"
             d="M 195.51139,133.03638 L 195.51139,284.69147 M 142.36179,133.26042 L 142.36179,284.91552 M 141.84899,285.04503 L 195.58911,285.04503 L 225.22675,256.89867 L 224.81234,105.73504 L 195.3338,132.95658 L 142.30079,132.95658 L 111.04227,104.67438 L 114.40357,243.42756"
             style="fill:#ffffff;fill-opacity:1;fill-rule:evenodd;stroke:#000000;stroke-width:6.25;stroke-linecap:butt;stroke-linejoin:miter;stroke-miterlimit:4;stroke-opacity:1"
             id="path7626" />
          <path
             sodipodi:nodetypes="cccccc"
             d="M 143.4453,129.98797 L 171.78194,64.203556 L 226.14484,101.31631 M 194.29297,129.88363 L 168.46927,64.193647 L 109.35251,100.7342"
             style="fill:#ffffff;fill-opacity:1;fill-rule:evenodd;stroke:#000000;stroke-width:6.25;stroke-linecap:butt;stroke-linejoin:miter;stroke-miterlimit:4;stroke-dasharray:none;stroke-opacity:1"
             id="path7628" />
        </g>
        <g
           style="fill:#ffffff;fill-opacity:1"
           id="g9386"
           transform="matrix(1.129932,0.117179,-0.116551,1.123871,18.92596,-19.64494)">
          <path
             id="path7616"
             d="M 81.008685,141.35534 L 65.595729,179.36138 L 122.11902,251.31632 L 146.21612,253.8098 L 170.97501,234.83911 L 174.06206,211.51667 L 120.43948,139.9588 L 81.008685,141.35534 z "
             style="fill:#ffffff;fill-opacity:1;fill-rule:evenodd;stroke:none;stroke-width:1px;stroke-linecap:butt;stroke-linejoin:miter;stroke-opacity:1" />
          <path
             sodipodi:nodetypes="cccccccccccc"
             d="M 117.27881,164.15209 L 162.57023,225.25225 M 92.599884,183.22714 L 146.73014,253.87324 M 163.8254,200.85252 L 121.18352,140.97581 L 117.1676,164.1783 L 92.463018,183.10737 L 67.806971,181.08967 L 122.18961,252.06516 L 146.53748,254.11661 L 169.36999,238.41793"
             style="fill:#ffffff;fill-opacity:1;fill-rule:evenodd;stroke:#000000;stroke-width:3.66785192;stroke-linecap:butt;stroke-linejoin:miter;stroke-miterlimit:4;stroke-dasharray:none;stroke-opacity:1"
             id="path7618" />
          <path
             sodipodi:nodetypes="cccccc"
             d="M 91.936584,181.31599 L 81.656323,140.55717 L 120.22707,138.4418 M 115.58592,163.11832 L 80.109632,141.73495 L 65.613455,179.85732"
             style="fill:#ffffff;fill-opacity:1;fill-rule:evenodd;stroke:#000000;stroke-width:3.66785192;stroke-linecap:butt;stroke-linejoin:miter;stroke-miterlimit:4;stroke-dasharray:none;stroke-opacity:1"
             id="path7620" />
        </g>
      </g>
      <g
         id="g1396">
        <path
           style="fill:#fdcd09;fill-opacity:1;fill-rule:evenodd;stroke:#000000;stroke-width:5.30839539;stroke-linecap:butt;stroke-linejoin:miter;stroke-miterlimit:4;stroke-dasharray:none;stroke-opacity:1"
           d="M 229.52997,744.57306 C 225.84725,724.50556 221.25316,696.68157 222.4373,669.24916 C 222.9737,507.10699 464.01293,516.86399 464.56613,671.87048 C 464.56613,701.56896 462.81557,719.96785 458.57293,739.76684 C 385.77394,768.60419 301.74304,770.86917 229.52997,744.57306 z "
           id="path10334"
           sodipodi:nodetypes="ccccc" />
        <path
           style="fill:#000000;fill-opacity:1;fill-rule:evenodd;stroke:#000000;stroke-width:4.44444275;stroke-linecap:butt;stroke-linejoin:miter;stroke-miterlimit:4;stroke-dasharray:none;stroke-opacity:1"
           d="M 255.08523,750.41627 C 253.85241,733.22773 248.32757,704.36851 249.26252,680.01348 C 249.68604,543.41306 436.98635,545.84274 436.98635,681.42769 C 436.98635,706.88353 432.24549,745.91804 432.24549,745.91804 C 370.91847,761.90349 315.5439,763.71794 255.08523,750.41627 z "
           id="path9457"
           sodipodi:nodetypes="ccccc" />
        <path
           style="fill:#0180bf;fill-opacity:1;fill-rule:evenodd;stroke:#000000;stroke-width:1.89557505;stroke-linecap:butt;stroke-linejoin:miter;stroke-miterlimit:4;stroke-dasharray:none;stroke-opacity:1"
           d="M 303.88113,755.40392 C 303.37855,747.73413 299.72063,734.52775 300.10178,723.66016 C 300.27443,662.70695 381.9988,663.16307 382.54973,723.66016 L 378.48051,753.85095 C 355.26266,759.20091 330.51395,759.35336 303.88113,755.40392 z "
           id="path10332"
           sodipodi:nodetypes="ccccc" />
        <rect
           style="fill:#fdcd09;fill-opacity:1;stroke:#000000;stroke-width:4.69510126;stroke-miterlimit:4;stroke-dasharray:none;stroke-dashoffset:0;stroke-opacity:1"
           id="rect12084"
           width="29.299999"
           height="39.122417"
           x="331.73181"
           y="539.93878" />
        <path
           style="fill:none;fill-opacity:0.75;fill-rule:evenodd;stroke:#000000;stroke-width:5;stroke-linecap:butt;stroke-linejoin:miter;stroke-miterlimit:4;stroke-dasharray:none;stroke-opacity:1"
           d="M 388.32295,558.79293 L 378.42345,587.7843"
           id="path10336"
           sodipodi:nodetypes="cc" />
        <path
           style="fill:none;fill-opacity:0.75;fill-rule:evenodd;stroke:#000000;stroke-width:5;stroke-linecap:butt;stroke-linejoin:miter;stroke-miterlimit:4;stroke-dasharray:none;stroke-opacity:1"
           d="M 414.24785,573.45682 L 399.41023,598.33361"
           id="path12959"
           sodipodi:nodetypes="cc" />
        <path
           style="fill:none;fill-opacity:0.75;fill-rule:evenodd;stroke:#000000;stroke-width:5;stroke-linecap:butt;stroke-linejoin:miter;stroke-miterlimit:4;stroke-dasharray:none;stroke-opacity:1"
           d="M 438.23744,594.49131 L 416.91812,614.77577"
           id="path12961"
           sodipodi:nodetypes="cc" />
        <path
           style="fill:none;fill-opacity:0.75;fill-rule:evenodd;stroke:#000000;stroke-width:5;stroke-linecap:butt;stroke-linejoin:miter;stroke-miterlimit:4;stroke-dasharray:none;stroke-opacity:1"
           d="M 456.82557,624.52344 L 429.68533,635.89798"
           id="path12963"
           sodipodi:nodetypes="cc" />
        <path
           style="fill:none;fill-opacity:0.75;fill-rule:evenodd;stroke:#000000;stroke-width:5;stroke-linecap:butt;stroke-linejoin:miter;stroke-miterlimit:4;stroke-dasharray:none;stroke-opacity:1"
           d="M 464.22709,656.50429 L 435.25435,661.65723"
           id="path12967"
           sodipodi:nodetypes="cc" />
        <path
           style="fill:none;fill-opacity:0.75;fill-rule:evenodd;stroke:#000000;stroke-width:5;stroke-linecap:butt;stroke-linejoin:miter;stroke-miterlimit:4;stroke-dasharray:none;stroke-opacity:1"
           d="M 466.57574,686.9215 L 437.14836,686.87964"
           id="path12971"
           sodipodi:nodetypes="cc" />
        <path
           style="fill:none;fill-opacity:0.75;fill-rule:evenodd;stroke:#000000;stroke-width:5;stroke-linecap:butt;stroke-linejoin:miter;stroke-miterlimit:4;stroke-dasharray:none;stroke-opacity:1"
           d="M 464.69706,715.20577 L 435.26968,715.16391"
           id="path12973"
           sodipodi:nodetypes="cc" />
        <path
           style="fill:none;fill-opacity:0.75;fill-rule:evenodd;stroke:#000000;stroke-width:5;stroke-linecap:butt;stroke-linejoin:miter;stroke-miterlimit:4;stroke-dasharray:none;stroke-opacity:1"
           d="M 306.35205,554.78246 L 316.25155,583.77383"
           id="path13000"
           sodipodi:nodetypes="cc" />
        <path
           style="fill:none;fill-opacity:0.75;fill-rule:evenodd;stroke:#000000;stroke-width:5;stroke-linecap:butt;stroke-linejoin:miter;stroke-miterlimit:4;stroke-dasharray:none;stroke-opacity:1"
           d="M 278.42715,569.44635 L 293.26477,594.32314"
           id="path13002"
           sodipodi:nodetypes="cc" />
        <path
           style="fill:none;fill-opacity:0.75;fill-rule:evenodd;stroke:#000000;stroke-width:5;stroke-linecap:butt;stroke-linejoin:miter;stroke-miterlimit:4;stroke-dasharray:none;stroke-opacity:1"
           d="M 252.43756,588.48084 L 273.75688,608.7653"
           id="path13004"
           sodipodi:nodetypes="cc" />
        <path
           style="fill:none;fill-opacity:0.75;fill-rule:evenodd;stroke:#000000;stroke-width:5;stroke-linecap:butt;stroke-linejoin:miter;stroke-miterlimit:4;stroke-dasharray:none;stroke-opacity:1"
           d="M 233.84943,618.51297 L 260.98967,629.88751"
           id="path13006"
           sodipodi:nodetypes="cc" />
        <path
           style="fill:none;fill-opacity:0.75;fill-rule:evenodd;stroke:#000000;stroke-width:5;stroke-linecap:butt;stroke-linejoin:miter;stroke-miterlimit:4;stroke-dasharray:none;stroke-opacity:1"
           d="M 222.44791,650.49382 L 251.42065,655.64676"
           id="path13008"
           sodipodi:nodetypes="cc" />
        <path
           style="fill:none;fill-opacity:0.75;fill-rule:evenodd;stroke:#000000;stroke-width:5;stroke-linecap:butt;stroke-linejoin:miter;stroke-miterlimit:4;stroke-dasharray:none;stroke-opacity:1"
           d="M 224.09926,682.91103 L 253.52664,682.86917"
           id="path13010"
           sodipodi:nodetypes="cc" />
        <path
           style="fill:none;fill-opacity:0.75;fill-rule:evenodd;stroke:#000000;stroke-width:5;stroke-linecap:butt;stroke-linejoin:miter;stroke-miterlimit:4;stroke-dasharray:none;stroke-opacity:1"
           d="M 223.97794,711.1953 L 253.40532,711.15344"
           id="path13012"
           sodipodi:nodetypes="cc" />
        <path
           style="fill:none;fill-opacity:0.75;fill-rule:evenodd;stroke:#000000;stroke-width:5;stroke-linecap:butt;stroke-linejoin:miter;stroke-miterlimit:4;stroke-dasharray:none;stroke-opacity:1"
           d="M 228.16708,737.71187 L 257.59446,737.67001"
           id="path13028"
           sodipodi:nodetypes="cc" />
        <path
           style="fill:none;fill-opacity:0.75;fill-rule:evenodd;stroke:#000000;stroke-width:5;stroke-linecap:butt;stroke-linejoin:miter;stroke-miterlimit:4;stroke-dasharray:none;stroke-opacity:1"
           d="M 458.71369,739.38092 L 429.28631,739.33906"
           id="path1395"
           sodipodi:nodetypes="cc" />
      </g>
    </g>
  </g>
</svg>

<svg xmlns="http://www.w3.org/2000/svg" width="690.09" height="780.36" version="1.0"><path d="m17.225 22.785 652.857 1.21-50.525 538.818c-36.781 269.036-527.377 272.17-554.338.055L17.225 22.785z" style="fill:#0180bf;fill-opacity:1;fill-rule:evenodd;stroke:#000;stroke-width:12.81259823;stroke-linecap:butt;stroke-linejoin:miter;stroke-miterlimit:4;stroke-dasharray:none;stroke-opacity:1"/><path d="m553.929 134.027-159.15 167.344-32.001-33.636-144.85 152.204-31.858-32.683L66.405 512.27l3.295 48.054c26.569 269.962 510.038 266.876 546.284-.031l18.631-200.123c-.45-1.019 7.5-88.499 7.5-88.499L553.93 134.027z" style="fill:#fdcd09;fill-opacity:1;fill-rule:evenodd;stroke:#000;stroke-width:6.17980528;stroke-linecap:butt;stroke-linejoin:miter;stroke-miterlimit:4;stroke-dasharray:none;stroke-opacity:1"/><g style="fill:#fff;fill-opacity:1"><path d="m170.079 64.612-60.236 35.433 1.88 155.906 30.01 28.346h53.149l28.346-28.346 1.632-152.363-54.781-38.976z" style="fill:#fff;fill-opacity:1;fill-rule:evenodd;stroke:none;stroke-width:1px;stroke-linecap:butt;stroke-linejoin:miter;stroke-opacity:1" transform="matrix(.78012 0 0 .90781 68.776 9.716)"/><path d="M195.511 133.036v151.655m-53.15-151.43v151.655m-31.319-27.88 30.807 28.009h53.74l29.638-28.146-.415-151.164-29.478 27.222H142.3l-31.259-28.283v152.363z" style="fill:#fff;fill-opacity:1;fill-rule:evenodd;stroke:#000;stroke-width:6.25;stroke-linecap:butt;stroke-linejoin:miter;stroke-miterlimit:4;stroke-opacity:1" transform="matrix(.78012 0 0 .90781 68.776 9.716)"/><path d="m143.445 129.988 28.337-65.784 54.363 36.562m-31.852 29.118-25.824-65.69-58.796 35.714" style="fill:#fff;fill-opacity:1;fill-rule:evenodd;stroke:#000;stroke-width:6.25;stroke-linecap:butt;stroke-linejoin:miter;stroke-miterlimit:4;stroke-dasharray:none;stroke-opacity:1" transform="matrix(.78012 0 0 .90781 68.776 9.716)"/></g><g style="fill:#fff;fill-opacity:1"><path d="m170.079 64.612-60.236 35.433 1.88 155.906 21.5 26.706 61.659 1.64 28.346-28.346 1.632-152.363-54.781-38.976z" style="fill:#fff;fill-opacity:1;fill-rule:evenodd;stroke:none;stroke-width:1px;stroke-linecap:butt;stroke-linejoin:miter;stroke-opacity:1" transform="scale(.4923) rotate(29.05 -207.72 1011.41)"/><path d="M195.511 133.036v151.655m-53.15-151.43v151.655m-.512.129h53.74l29.638-28.146-.415-151.164-29.478 27.222H142.3l-31.259-28.283 3.362 138.754" style="fill:#fff;fill-opacity:1;fill-rule:evenodd;stroke:#000;stroke-width:6.25;stroke-linecap:butt;stroke-linejoin:miter;stroke-miterlimit:4;stroke-opacity:1" transform="scale(.4923) rotate(29.05 -207.72 1011.41)"/><path d="m143.445 129.988 28.337-65.784 54.363 37.112m-31.852 28.568-25.824-65.69-59.116 36.54" style="fill:#fff;fill-opacity:1;fill-rule:evenodd;stroke:#000;stroke-width:6.25;stroke-linecap:butt;stroke-linejoin:miter;stroke-miterlimit:4;stroke-dasharray:none;stroke-opacity:1" transform="scale(.4923) rotate(29.05 -207.72 1011.41)"/></g><g style="fill:#fff;fill-opacity:1"><path d="m81.009 141.355-15.413 38.006 56.523 71.955 24.097 2.494 24.759-18.97 3.087-23.323-53.623-71.558-39.43 1.396z" style="fill:#fff;fill-opacity:1;fill-rule:evenodd;stroke:none;stroke-width:1px;stroke-linecap:butt;stroke-linejoin:miter;stroke-opacity:1" transform="matrix(1.12993 .11718 -.11655 1.12387 18.926 -19.645)"/><path d="m117.279 164.152 45.291 61.1M92.6 183.227l54.13 70.646m17.095-53.02-42.641-59.877-4.016 23.202-24.705 18.93-24.656-2.018 54.383 70.975 24.347 2.052 22.833-15.7" style="fill:#fff;fill-opacity:1;fill-rule:evenodd;stroke:#000;stroke-width:3.66785192;stroke-linecap:butt;stroke-linejoin:miter;stroke-miterlimit:4;stroke-dasharray:none;stroke-opacity:1" transform="matrix(1.12993 .11718 -.11655 1.12387 18.926 -19.645)"/><path d="m91.937 181.316-10.28-40.759 38.57-2.115m-4.641 24.676L80.11 141.735l-14.497 38.122" style="fill:#fff;fill-opacity:1;fill-rule:evenodd;stroke:#000;stroke-width:3.66785192;stroke-linecap:butt;stroke-linejoin:miter;stroke-miterlimit:4;stroke-dasharray:none;stroke-opacity:1" transform="matrix(1.12993 .11718 -.11655 1.12387 18.926 -19.645)"/></g><g><path style="fill:#fdcd09;fill-opacity:1;fill-rule:evenodd;stroke:#000;stroke-width:5.30839539;stroke-linecap:butt;stroke-linejoin:miter;stroke-miterlimit:4;stroke-dasharray:none;stroke-opacity:1" d="M229.53 744.573c-3.683-20.067-8.277-47.891-7.093-75.324.537-162.142 241.576-152.385 242.13 2.621 0 29.699-1.751 48.098-5.994 67.897-72.8 28.837-156.83 31.102-229.043 4.806z"/><path style="fill:#000;fill-opacity:1;fill-rule:evenodd;stroke:#000;stroke-width:4.44444275;stroke-linecap:butt;stroke-linejoin:miter;stroke-miterlimit:4;stroke-dasharray:none;stroke-opacity:1" d="M255.085 750.416c-1.233-17.188-6.757-46.047-5.822-70.403.423-136.6 187.723-134.17 187.723 1.415 0 25.456-4.74 64.49-4.74 64.49-61.328 15.985-116.702 17.8-177.16 4.498z"/><path style="fill:#0180bf;fill-opacity:1;fill-rule:evenodd;stroke:#000;stroke-width:1.89557505;stroke-linecap:butt;stroke-linejoin:miter;stroke-miterlimit:4;stroke-dasharray:none;stroke-opacity:1" d="M303.881 755.404c-.502-7.67-4.16-20.876-3.78-31.744.173-60.953 81.898-60.497 82.449 0l-4.07 30.191c-23.217 5.35-47.966 5.502-74.599 1.553z"/><path style="fill:#fdcd09;fill-opacity:1;stroke:#000;stroke-width:4.69510126;stroke-miterlimit:4;stroke-dasharray:none;stroke-dashoffset:0;stroke-opacity:1" d="M331.732 539.939h29.3v39.122h-29.3z"/><path style="fill:none;fill-opacity:.75;fill-rule:evenodd;stroke:#000;stroke-width:5;stroke-linecap:butt;stroke-linejoin:miter;stroke-miterlimit:4;stroke-dasharray:none;stroke-opacity:1" d="m388.323 558.793-9.9 28.991M414.248 573.457l-14.838 24.877M438.237 594.491l-21.319 20.285M456.826 624.523l-27.14 11.375M464.227 656.504l-28.973 5.153M466.576 686.922l-29.428-.042M464.697 715.206l-29.427-.042M306.352 554.782l9.9 28.992M278.427 569.446l14.838 24.877M252.438 588.48l21.319 20.285M233.85 618.513l27.14 11.375M222.448 650.494l28.973 5.153M224.1 682.911l29.427-.042M223.978 711.195l29.427-.042M228.167 737.712l29.427-.042M458.714 739.38l-29.428-.04"/></g></svg>
